src/icon/alien.svg

<svg fill="none" height="24" viewBox="0 0 24 24" width="24" xmlns="http://www.w3.org/2000/svg"><path d="m11.9451.96666c1.342.019736 2.5855.1875 3.7697.66118 1.9341.75986 3.3749 2.06248 4.2236 3.9868.8092 1.85524.9178 3.78943.602 5.75326-.3454 2.1907-1.1546 4.2236-2.2303 6.1578-.7697 1.3717-1.6776 2.6546-2.8223 3.7401-.6316.602-1.3224 1.125-2.1316 1.4704-1.1743.5131-2.2894.3256-3.36507-.2862-1.30262-.7401-2.29932-1.8059-3.15786-3.0098-1.67762-2.3388-2.81247-4.9243-3.32563-7.7664-.34539-1.91447-.30591-3.81905.39474-5.6743.71052-1.87498 1.9934-3.25654 3.82891-4.12495 1.35196-.65131 2.79271-.878285 4.21381-.90789zm-.9474 15.73994c.0296-.9671-.3947-2.0822-1.20394-2.9309-1.0263-1.0657-2.29931-1.4802-3.76969-1.2631-.16777.0197-.20724.0987-.22698.2467-.15789 1.125.03948 2.1809.71052 3.0987 1.03618 1.4309 2.44735 2.0131 4.19399 1.7861.1481-.0197.227-.0691.2369-.2368 0-.227.0395-.4638.0592-.7007zm2.0131.0494c.0198.2072.0296.4539.079.7006.0099.0691.1085.1579.1776.1777.6415.1381 1.273.0888 1.8947-.0889 2.0625-.5822 3.3553-2.6052 3.0592-4.7368-.0296-.2171-.1085-.2861-.3059-.3059-1.4013-.1776-2.625.2171-3.6414 1.204-.8388.819-1.2237 1.8355-1.2632 3.0493z" fill="#0085fb"/></svg>

<svg width="24" height="24" viewBox="0 0 24 24" fill="none" xmlns="http://www.w3.org/2000/svg">
<path d="M11.9451 0.96666C13.2871 0.986396 14.5306 1.15416 15.7148 1.62784C17.6489 2.3877 19.0897 3.69032 19.9384 5.61464C20.7476 7.46988 20.8562 9.40407 20.5404 11.3679C20.195 13.5586 19.3858 15.5915 18.3101 17.5257C17.5404 18.8974 16.6325 20.1803 15.4878 21.2658C14.8562 21.8678 14.1654 22.3908 13.3562 22.7362C12.1819 23.2493 11.0668 23.0618 9.99113 22.45C8.68851 21.7099 7.69181 20.6441 6.83327 19.4402C5.15565 17.1014 4.0208 14.5159 3.50764 11.6738C3.16225 9.75933 3.20173 7.85475 3.90238 5.9995C4.6129 4.12452 5.89578 2.74296 7.73129 1.87455C9.08325 1.22324 10.524 0.996265 11.9451 0.96666ZM10.9977 16.7066C11.0273 15.7395 10.603 14.6244 9.79376 13.7757C8.76746 12.71 7.49445 12.2955 6.02407 12.5126C5.8563 12.5323 5.81683 12.6113 5.79709 12.7593C5.6392 13.8843 5.83657 14.9402 6.50761 15.858C7.54379 17.2889 8.95496 17.8711 10.7016 17.6441C10.8497 17.6244 10.9286 17.575 10.9385 17.4073C10.9385 17.1803 10.978 16.9435 10.9977 16.7066ZM13.0108 16.756C13.0306 16.9632 13.0404 17.2099 13.0898 17.4566C13.0997 17.5257 13.1983 17.6145 13.2674 17.6343C13.9089 17.7724 14.5404 17.7231 15.1621 17.5454C17.2246 16.9632 18.5174 14.9402 18.2213 12.8086C18.1917 12.5915 18.1128 12.5225 17.9154 12.5027C16.5141 12.3251 15.2904 12.7198 14.274 13.7067C13.4352 14.5257 13.0503 15.5422 13.0108 16.756Z" fill="#0085FB"/>
</svg>
